app/result/img/bens-3.svg

<svg width="42" height="39" viewBox="0 0 42 39" fill="none" xmlns="http://www.w3.org/2000/svg">
<path d="M40.1544 16.285H39.5395V7.49898C39.5395 5.25396 37.7915 3.42748 35.643 3.42748H18.7463L7.34703 0.0243041C7.34375 0.0233613 7.34039 0.0228468 7.33711 0.021904C7.33374 0.0209611 7.33054 0.0195898 7.32718 0.0187327C7.32029 0.0169327 7.31348 0.0160756 7.30667 0.0145327C7.29609 0.0122185 7.28551 0.00981846 7.27493 0.00801847C7.26533 0.00638991 7.2559 0.00536133 7.2463 0.00416134C7.23514 0.00278992 7.22407 0.00158992 7.21299 0.000904206C7.20397 0.000389923 7.19503 0.000304143 7.18601 0.000132715C7.17452 -3.87127e-05 7.16312 -0.000124404 7.15172 0.000389879C7.14327 0.000732734 7.13482 0.00158982 7.12645 0.00227553C7.11472 0.00330409 7.10299 0.0044185 7.09142 0.00621849C7.08355 0.00741848 7.07576 0.00896131 7.06796 0.0104184C7.05599 0.012647 7.04417 0.0150469 7.03244 0.0180469C7.02514 0.0199326 7.01801 0.0220755 7.01079 0.0242183C6.99881 0.0278183 6.987 0.031504 6.97519 0.0357897C6.96854 0.0382754 6.96198 0.0409326 6.95533 0.0436754C6.94344 0.0484754 6.93163 0.0535324 6.92006 0.0591038C6.91391 0.0621038 6.90792 0.0653609 6.90185 0.0685324C6.89028 0.074618 6.87888 0.0807895 6.86773 0.0877323C6.8619 0.0912466 6.85632 0.095018 6.85058 0.0987894C6.83959 0.105989 6.82876 0.113361 6.81826 0.121332C6.81276 0.125446 6.80743 0.129903 6.80202 0.134275C6.79193 0.142418 6.78192 0.150732 6.77232 0.15956C6.76691 0.164532 6.76174 0.16976 6.75649 0.174903C6.74747 0.183818 6.73853 0.192732 6.73 0.20216C6.72466 0.208074 6.71966 0.214246 6.71449 0.220417C6.7067 0.22976 6.69899 0.239189 6.69169 0.249046C6.68644 0.25616 6.68151 0.263446 6.67651 0.270731C6.67003 0.280246 6.66363 0.289845 6.65773 0.299703C6.65264 0.308102 6.64796 0.316845 6.64329 0.325502C6.63812 0.335017 6.63295 0.344616 6.62828 0.354473C6.62368 0.364073 6.61958 0.373931 6.6154 0.383788C6.6113 0.393474 6.60728 0.403159 6.60367 0.413102C6.59989 0.423559 6.59661 0.434273 6.59325 0.445073C6.59112 0.452016 6.58849 0.45853 6.58652 0.465559C6.58554 0.469073 6.58513 0.472501 6.58423 0.47593C6.58332 0.479444 6.58201 0.482787 6.58119 0.486301L5.87769 3.42731H3.89689C1.75268 3.42731 0.00771092 5.24642 0.000656249 7.48526C0.000574218 7.48989 0 7.49426 0 7.49881V29.7844C0 30.1392 0.276445 30.4272 0.615233 30.4272C0.954842 30.4272 1.23047 30.1392 1.23047 29.7844V10.4639C1.92806 11.1493 2.866 11.5705 3.89689 11.5705H35.643C35.6437 11.5705 35.6444 11.5704 35.6451 11.5704C37.1142 11.5716 38.309 12.8208 38.309 14.3562V18.8565H31.5405C31.5401 18.8565 31.5397 18.8566 31.5393 18.8566C31.5215 18.8566 31.5038 18.8577 31.4862 18.8593C31.4666 18.8611 31.4472 18.864 31.4282 18.8677C31.4253 18.8682 31.4225 18.8685 31.4196 18.8691C31.4036 18.8724 31.3878 18.8769 31.3721 18.8815C31.3687 18.8825 31.3652 18.8832 31.3618 18.8843C31.3479 18.8888 31.3343 18.8941 31.3208 18.8995C31.3156 18.9016 31.3104 18.9033 31.3052 18.9055C31.2939 18.9104 31.283 18.9161 31.2721 18.9217C31.2648 18.9253 31.2575 18.9287 31.2505 18.9325C31.242 18.9372 31.2339 18.9426 31.2257 18.9478C31.2166 18.9534 31.2073 18.9589 31.1985 18.9651C31.1925 18.9692 31.187 18.9739 31.1812 18.9783C31.1707 18.9862 31.1602 18.994 31.1502 19.0026C31.1458 19.0064 31.1418 19.0106 31.1376 19.0145C31.1269 19.0242 31.1161 19.0339 31.1059 19.0445C31.1 19.0508 31.0945 19.0577 31.0889 19.0642C31.0809 19.0732 31.0727 19.082 31.0652 19.0916C31.0525 19.1078 31.0406 19.1246 31.0294 19.142C31.0292 19.1423 31.0289 19.1426 31.0288 19.1429L27.7477 24.2859C27.7248 24.3217 27.7054 24.3597 27.6901 24.3992C27.6843 24.4139 27.6796 24.4289 27.6749 24.4438C27.6735 24.4484 27.6717 24.4527 27.6704 24.4573C27.6658 24.4731 27.6623 24.4892 27.6589 24.5051C27.658 24.5093 27.6569 24.5134 27.656 24.5176C27.6533 24.532 27.6515 24.5465 27.6498 24.561C27.6491 24.5672 27.6479 24.5733 27.6474 24.5796C27.6462 24.5915 27.646 24.6033 27.6455 24.6152C27.6451 24.6243 27.6444 24.6334 27.6444 24.6426C27.6444 24.6514 27.6451 24.6603 27.6455 24.6691C27.6459 24.6813 27.6462 24.6935 27.6474 24.7057C27.6479 24.7116 27.649 24.7175 27.6497 24.7234C27.6515 24.7382 27.6533 24.7529 27.6561 24.7676C27.6569 24.7716 27.658 24.7755 27.6589 24.7796C27.6623 24.7957 27.6659 24.8118 27.6705 24.8278C27.6718 24.8324 27.6736 24.8367 27.675 24.8414C27.6797 24.8563 27.6843 24.8713 27.6902 24.886C27.7056 24.9255 27.725 24.9635 27.7479 24.9994L31.0289 30.1416C31.0291 30.1418 31.0292 30.142 31.0294 30.1422C31.0426 30.1627 31.0571 30.1823 31.0723 30.201C31.0773 30.2072 31.0826 30.213 31.0878 30.2188C31.0982 30.2307 31.1091 30.2422 31.1203 30.2532C31.1269 30.2598 31.1335 30.2661 31.1402 30.2722C31.1522 30.2829 31.1646 30.2929 31.1773 30.3027C31.1831 30.3071 31.1885 30.3119 31.1944 30.316C31.2128 30.3291 31.2319 30.3412 31.2517 30.3522C31.2567 30.3549 31.2619 30.3572 31.2669 30.3598C31.2826 30.368 31.2987 30.3756 31.3152 30.3824C31.3216 30.3851 31.328 30.3875 31.3345 30.3899C31.3502 30.3957 31.3661 30.4008 31.3823 30.4054C31.389 30.4072 31.3955 30.4091 31.4022 30.4108C31.4189 30.4148 31.4358 30.4179 31.4529 30.4205C31.4592 30.4214 31.4653 30.4227 31.4716 30.4235C31.4927 30.426 31.5142 30.4273 31.536 30.4275C31.5378 30.4275 31.5395 30.4278 31.5413 30.4278C31.5416 30.4278 31.542 30.4278 31.5424 30.4278H38.3093V34.9284C38.3093 36.4646 37.1132 37.7143 35.6432 37.7143H3.89722C2.42722 37.7143 1.2312 36.4646 1.2312 34.9284C1.2312 34.9251 1.23079 34.9218 1.23071 34.9185V32.3562C1.23071 32.0022 0.955088 31.7133 0.615479 31.7133C0.276691 31.7133 0.000246093 32.0022 0.000246093 32.3562V34.9284C0.000246093 34.9351 0.000984373 34.9416 0.00123047 34.9482C0.0114844 37.1842 1.75506 39 3.89722 39H35.6432C37.7916 39 39.5394 37.1739 39.5397 34.9291C39.5397 34.9293 39.5397 34.929 39.5397 34.9291V30.4278H40.1546C41.1721 30.4278 42 29.5627 42 28.4995V18.2132C41.9998 17.15 41.1719 16.285 40.1544 16.285ZM7.62069 1.44312L18.4766 4.68422C18.4771 4.68439 18.4777 4.68448 18.4782 4.68465L25.754 6.85681H6.32575L7.62069 1.44312ZM38.3089 11.3909C37.6114 10.7057 36.6736 10.2846 35.643 10.2846C35.6419 10.2846 35.641 10.2848 35.6398 10.2848H3.89689C2.42681 10.2848 1.23079 9.03505 1.23079 7.49898C1.23079 5.9629 2.42681 4.71319 3.89689 4.71319H5.57016L5.05746 6.85681H3.89705C3.55728 6.85681 3.28182 7.14464 3.28182 7.49966C3.28182 7.85469 3.55728 8.14252 3.89705 8.14252H5.5357C5.53652 8.14252 5.53743 8.14269 5.53833 8.14269C5.53899 8.14269 5.53964 8.14252 5.54022 8.14252H30.1447C30.1455 8.14252 30.1463 8.14269 30.147 8.14269C30.1477 8.14269 30.1483 8.14252 30.149 8.14252H34.822C35.1617 8.14252 35.4372 7.85469 35.4372 7.49966C35.4372 7.14464 35.1617 6.85681 34.822 6.85681H30.2329L23.0528 4.71319H35.6429C37.1129 4.71319 38.3089 5.9629 38.3089 7.49898V11.3909ZM40.7693 28.4992C40.7693 28.8535 40.4934 29.1417 40.1544 29.1417H31.8697L28.9987 24.6423L31.8697 20.1421H40.1544C40.163 20.1421 40.1714 20.1411 40.1799 20.1407C40.3863 20.1377 40.5845 20.0993 40.7693 20.0309V28.4992ZM40.1544 18.8557C40.1501 18.8557 40.1459 18.8563 40.1417 18.8564H39.5395V17.5707H40.1544C40.4934 17.5707 40.7693 17.8589 40.7693 18.2132C40.7693 18.5675 40.4934 18.8557 40.1544 18.8557Z" fill="#BE1622"/>
<path d="M34.0018 22.285C32.7579 22.285 31.7459 23.3425 31.7459 24.6422C31.7459 25.942 32.7579 26.9994 34.0018 26.9994C35.2457 26.9994 36.2576 25.942 36.2576 24.6422C36.2576 23.3425 35.2457 22.285 34.0018 22.285ZM34.0018 25.7137C33.4363 25.7137 32.9764 25.2331 32.9764 24.6422C32.9764 24.0514 33.4363 23.5707 34.0018 23.5707C34.5672 23.5707 35.0272 24.0514 35.0272 24.6422C35.0272 25.2331 34.5672 25.7137 34.0018 25.7137Z" fill="#BE1622"/>
</svg>

<svg width="42" height="39" viewBox="0 0 42 39" fill="none" xmlns="http://www.w3.org/2000/svg"><path d="M40.154 16.285h-.615V7.499c0-2.245-1.748-4.072-3.896-4.072H18.746L7.347.024l-.01-.002-.01-.003-.02-.004-.032-.007-.029-.004a.554.554 0 0 0-.033-.003h-.061l-.026.001a.528.528 0 0 0-.035.004L7.068.01a.547.547 0 0 0-.036.008l-.021.006a.663.663 0 0 0-.09.035L6.9.07a.536.536 0 0 0-.033.019l-.017.01a.567.567 0 0 0-.033.023l-.016.013a.604.604 0 0 0-.03.026l-.016.015a.68.68 0 0 0-.026.027L6.714.22a.635.635 0 0 0-.022.029c-.006.007-.01.014-.015.022a.59.59 0 0 0-.02.029l-.014.026a.59.59 0 0 0-.015.028l-.013.03a.604.604 0 0 0-.011.03l-.01.031c-.003.007-.006.014-.007.02l-.003.01c0 .004-.002.008-.003.011l-.703 2.941H3.897C1.753 3.427.007 5.247 0 7.485L0 7.5v22.285a.63.63 0 0 0 .615.643.63.63 0 0 0 .615-.643v-19.32a3.794 3.794 0 0 0 2.667 1.106H35.645c1.47.002 2.664 1.25 2.664 2.786v4.5h-6.768-.002a.586.586 0 0 0-.11.012l-.01.001a.603.603 0 0 0-.047.012c-.003.002-.007.002-.01.003a.649.649 0 0 0-.041.015c-.005.003-.01.004-.016.006l-.033.017-.021.01-.025.016c-.01.005-.019.01-.027.017l-.018.013-.03.025c-.005.003-.01.008-.013.012-.011.01-.022.019-.032.03l-.017.02-.024.027a.665.665 0 0 0-.036.05l-3.281 5.144a.639.639 0 0 0-.058.113l-.015.045-.005.013a.677.677 0 0 0-.011.048l-.003.013a.638.638 0 0 0-.006.043l-.003.019-.002.035v.054l.002.037c0 .006.002.012.003.017l.006.045.003.012a.689.689 0 0 0 .012.048c0 .004.003.009.004.013l.015.045a.65.65 0 0 0 .058.113l3.28 5.143h.001a.66.66 0 0 0 .043.059l.016.018a.623.623 0 0 0 .09.084l.016.013a.607.607 0 0 0 .058.036l.015.008a.59.59 0 0 0 .115.045l.02.006a.613.613 0 0 0 .05.01c.007 0 .013.002.02.003a.594.594 0 0 0 .064.003H38.309v4.501c0 1.537-1.196 2.786-2.666 2.786H3.897c-1.47 0-2.666-1.25-2.666-2.786V32.356c0-.354-.276-.643-.616-.643-.338 0-.615.29-.615.643v2.572l.001.02C.011 37.184 1.755 39 3.897 39h31.746c2.149 0 3.896-1.826 3.897-4.07 0 0 0-.001 0 0v-4.502h.615c1.017 0 1.845-.865 1.845-1.928V18.212c0-1.063-.828-1.928-1.846-1.928zM7.621 1.443l10.856 3.241h.001l7.276 2.173H6.326L7.62 1.443zm30.688 9.948a3.793 3.793 0 0 0-2.666-1.106H3.897c-1.47 0-2.666-1.25-2.666-2.786s1.196-2.786 2.666-2.786H5.57l-.513 2.144h-1.16a.63.63 0 0 0-.615.643.63.63 0 0 0 .615.643H34.822a.63.63 0 0 0 .615-.643.63.63 0 0 0-.615-.643h-4.59l-7.18-2.144h12.59c1.47 0 2.667 1.25 2.667 2.786v3.892zm2.46 17.108a.63.63 0 0 1-.615.643H31.87l-2.871-4.5 2.87-4.5h8.285l.026-.001c.206-.003.404-.042.59-.11v8.468zm-.615-9.643h-.615v-1.285h.615a.63.63 0 0 1 .615.642.63.63 0 0 1-.615.643z" fill="#BE1622"/><path d="M34.002 22.285c-1.244 0-2.256 1.058-2.256 2.357 0 1.3 1.012 2.357 2.256 2.357 1.244 0 2.256-1.057 2.256-2.357 0-1.3-1.012-2.357-2.256-2.357zm0 3.429c-.566 0-1.026-.48-1.026-1.072 0-.59.46-1.071 1.026-1.071.565 0 1.025.48 1.025 1.071s-.46 1.072-1.025 1.072z" fill="#BE1622"/></svg>
